src/helpers/heroicons/outline/radio.svg

<svg width="24" height="24" viewBox="0 0 24 24" fill="none" xmlns="http://www.w3.org/2000/svg">
<path d="M3.75 7.5L20.25 3.375M12 6.75C9.29246 6.75 6.63727 6.97417 4.05199 7.40497C2.99912 7.58042 2.25 8.50663 2.25 9.57402V18.75C2.25 19.9926 3.25736 21 4.5 21H19.5C20.7426 21 21.75 19.9926 21.75 18.75V9.57402C21.75 8.50663 21.0009 7.58042 19.948 7.40497C17.3627 6.97417 14.7075 6.75 12 6.75ZM10.3169 13.1931L10.3116 13.1984L10.3063 13.1931L10.3116 13.1878L10.3169 13.1931ZM10.3118 15.3195L10.3065 15.3142L10.3118 15.3089L10.3171 15.3142L10.3118 15.3195ZM8.1958 15.3144L8.1905 15.3197L8.18519 15.3144L8.1905 15.3091L8.1958 15.3144ZM8.19067 13.1982L8.18537 13.1929L8.19067 13.1876L8.19598 13.1929L8.19067 13.1982ZM9.25488 10.5V10.5075H9.24738V10.5H9.25488ZM12.5039 12.3801L12.4974 12.3839L12.4937 12.3774L12.5002 12.3736L12.5039 12.3801ZM11.1248 17.5063L11.121 17.4999L11.1275 17.4961L11.1313 17.5026L11.1248 17.5063ZM11.1313 11.0048L11.1276 11.0113L11.1211 11.0076L11.1249 11.0011L11.1313 11.0048ZM12.5002 16.1338L12.4937 16.13L12.4975 16.1235L12.504 16.1273L12.5002 16.1338ZM13.0049 14.2573H12.9974V14.2498H13.0049V14.2573ZM9.25488 18V18.0075H9.24738V18H9.25488ZM6.00879 16.1301L6.00229 16.1339L5.99854 16.1274L6.00504 16.1236L6.00879 16.1301ZM7.37476 11.0112L7.37101 11.0047L7.3775 11.001L7.38125 11.0075L7.37476 11.0112ZM7.38135 17.4999L7.3776 17.5064L7.3711 17.5027L7.37485 17.4962L7.38135 17.4999ZM6.00513 12.3838L5.99863 12.38L6.00238 12.3735L6.00888 12.3773L6.00513 12.3838ZM5.50488 14.2573H5.49738V14.2498H5.50488V14.2573ZM17.25 12.75C16.8358 12.75 16.5 12.4142 16.5 12C16.5 11.5858 16.8358 11.25 17.25 11.25C17.6642 11.25 18 11.5858 18 12C18 12.4142 17.6642 12.75 17.25 12.75ZM17.25 17.25C16.8358 17.25 16.5 16.9142 16.5 16.5C16.5 16.0858 16.8358 15.75 17.25 15.75C17.6642 15.75 18 16.0858 18 16.5C18 16.9142 17.6642 17.25 17.25 17.25Z"  stroke-width="1.5" stroke-linecap="round" stroke-linejoin="round"/>
</svg>

<svg xmlns="http://www.w3.org/2000/svg" fill="none" viewBox="0 0 24 24" stroke-width="1.5" stroke="currentColor" aria-hidden="true" data-slot="icon">
  <path stroke-linecap="round" stroke-linejoin="round" d="m3.75 7.5 16.5-4.125M12 6.75c-2.708 0-5.363.224-7.948.655C2.999 7.58 2.25 8.507 2.25 9.574v9.176A2.25 2.25 0 0 0 4.5 21h15a2.25 2.25 0 0 0 2.25-2.25V9.574c0-1.067-.75-1.994-1.802-2.169A48.329 48.329 0 0 0 12 6.75Zm-1.683 6.443-.005.005-.006-.005.006-.005.005.005Zm-.005 2.127-.005-.006.005-.005.005.005-.005.005Zm-2.116-.006-.005.006-.006-.006.005-.005.006.005Zm-.005-2.116-.006-.005.006-.005.005.005-.005.005ZM9.255 10.5v.008h-.008V10.5h.008Zm3.249 1.88-.007.004-.003-.007.006-.003.004.006Zm-1.38 5.126-.003-.006.006-.004.004.007-.006.003Zm.007-6.501-.003.006-.007-.003.004-.007.006.004Zm1.37 5.129-.007-.004.004-.006.006.003-.004.007Zm.504-1.877h-.008v-.007h.008v.007ZM9.255 18v.008h-.008V18h.008Zm-3.246-1.87-.007.004L6 16.127l.006-.003.004.006Zm1.366-5.119-.004-.006.006-.004.004.007-.006.003ZM7.38 17.5l-.003.006-.007-.003.004-.007.006.004Zm-1.376-5.116L6 12.38l.003-.007.007.004-.004.007Zm-.5 1.873h-.008v-.007h.008v.007ZM17.25 12.75a.75.75 0 1 1 0-1.5.75.75 0 0 1 0 1.5Zm0 4.5a.75.75 0 1 1 0-1.5.75.75 0 0 1 0 1.5Z"/>
</svg>
